X: 05072
T: PINEWOODS REEL
C: Bob McQuillen Aug.'80
B: Bob's Note Book 5 #72
%R: reel
Z: 2021 John Chambers <jc:trillian.mit.edu>
M: C
L: 1/8
K: D
A2 \
| dfef dAdf | efgf e2ag | fgab afdf | efec A2Bc |\
| dfef dAdf | efgf e2ag | f2df gecd | e2d2 d2 :|
|: fg \
| a2fa bade | f2d2 d2fg | a2ab afef | d2B2 B2dB |\
| A2Ad B2Bd | A2Ad B2A2 | d2df gecd | e2d2 d2 :|
%%begintext align
%% American
%% Dance Week at Pinewoods Camp - Great
%% place, great people! (_Thanks_, Fred B.!)
%%endtext

%%sep 1 1 500

%%sep 1 1 500

